X:1
T: Lady Georgina Gordon's Reel
T: Lady Georgina Gordon's Strathspey
C:William Marshall
R:Strathspey
Q: 128
K:F
M:4/4
L:1/16
|:C2|FF3 F4 A3F A3c|df3 c3A G6 A2|FF3 F4 A3F A3c|df3 c3A F6 C2|
FF3 F4 A3F A3c|df3 c3A G6 A2|FF3 F4 A3F A3c|df3 c3A F6 c2|
f3g a3g agfe c3d|c3d f3a g6 a2|f3g a3g agfd c3f|df3 c3A F6 c2|
f3g a3g agfe c3d|c3d f3a g6 fg|a3f agfe f3c df3|c3B A3G F6:|
